X:1
T:Still Undecided?
T:Still Undecided?
T:Robert Lowry
T:Frances Jane (Fanny) Crosby, 1875
T:Public Domain Courtesy of the Cyber Hymnal™
C:Robert Lowry
Z:Public Domain
Z:Courtesy of the Cyber Hymnal™
%%score ( 1 2 ) 3
L:1/8
Q:1/4=105
M:3/4
K:Eb
V:1 treble 
V:2 treble 
V:3 bass 
V:1
 [EB]4 E>[EF] | [EG] [EG]3 z2 | [DF]2 [DG]3 [DF] | E6 | [EG]2 [EG]3 [EA] | [Ec] [EB]3 z2 | %6
w: 1.~Still un- de-|cid- ed?|Look to thy|heart;|Grieve not the|Spir- it,|
w: 2.~Still un- de-|cid- ed?|Slight not the|voice|Breath- ing so|kind- ly;|
w: 3.~Still un- de-|cid- ed?|Time flies a-|pace;|Je- sus en-|treats thee;|
w: 4.~Still un- de-|cid- ed?|What shall we|say?|Still un- de-|cid- ed?|
 [EB]2 E2 [DF]2 | [EG]6 | [EB]2 [FA]2 [EG]2 | [EG]>[DF] [DF]4 | [FA]2 [EG]2 [DF]2 | %11
w: Lest He de-|part;|Why wilt thou|long- er wait?|Come ere it|
w: Make Me thy|choice;|Look at My|hands and see:|I bore the|
w: Spurn not His|grace;|What if the|word were passed,|This night should|
w: Yet we will|pray:|Oh, may the|Spir- it move!|Oh, may our|
 [EG]>[EB] [EB]4 | [EG]2 [DF]2 E2 | [EA]>[EA] [Ec]4 | [EB]2 [EG]2 [DF]2 | E6 |] %16
w: be too late;|Je- sus at|mer- cy’s gate|Grace will im-|part.|
w: nails for thee,|I died to|make thee fre;|Come, and re-|joice.|
w: be thy last?|Where would thy|soul be cast?|Where hide thy|face?|
w: God a- bove|Melt thy poor|heart to love—|Melt thee to-|day!|
V:2
 x4 E3/2 x/ | x6 | x6 | E6 | x6 | x6 | x2 E2 x2 | x6 | x6 | x6 | x6 | x6 | x4 E2 | x6 | x6 | E6 |] %16
V:3
 [E,G,]4 [E,G,]>[E,A,] | [E,B,] [E,B,]3 z2 | [B,,A,]2 [B,,B,]3 [B,,A,] | [E,G,]6 | %4
 [E,B,]2 [E,B,]3 [E,C] | [E,A,] [E,G,]3 z2 | [E,G,]2 [C,G,]2 [B,,B,]2 | [E,B,]6 | %8
 [E,G,]2 [D,B,]2 [E,B,]2 | [B,,B,]>[B,,B,] [B,,B,]4 | [B,,B,]2 [B,,B,]2 [B,,B,]2 | %11
 [E,B,]>[E,G,] [E,G,]4 | [E,B,]2 [B,,A,]2 [C,G,]2 | [A,,C]>[A,,C] [A,,A,]4 | %14
 [B,,G,]2 [B,,B,]2 [B,,A,]2 | [E,G,]6 |] %16

